X:1
T:Title
%%score { ( 1 4 5 ) | ( 2 3 ) }
L:1/8
Q:1/4=100
M:4/4
K:Bb
V:1 treble nm="Grand Piano"
V:4 treble 
V:5 treble 
V:2 bass 
V:3 bass 
V:1
 [DF]2 [DF]>[DF] [DF]2 [B,D]2 | [DB]2 [EB]2 [DB]4 | c2 c>c c2 dc |[M:7/8] [B,DB]2 [EB]2 [DF]3 | %4
w: S.~B.~Jackson * * * *||||
[M:1/8] [DF] |[M:4/4] G2 B2 B2 [FA][EG] | [DF]2 [DB]2 [Fd]2 [Fd]2 | c2 c2 c>B d>c | [DB]6 z2 | %9
w: |||||
 d4 [Fd]4 | [GB]>[GB] [FA]>[EG] [DF]2 [FB]2 | c2 c2 c>[Fc] [FB]>c | d6 z2 | %13
w: ||||
 [Fd]2 [Fd]>[Fd] z2 z c | [GB]>[GB] [FA]>[EG] [DF]2 [FB]2 | c2 c2 c>B d>c | [DB]6 z2 |] %17
w: ||||
V:2
 [B,,B,]2 [B,,B,]>[B,,B,] [B,,B,]2 [B,,F,]2 | [B,,F,]2 [B,,G,]2 [B,,F,]4 | %2
 [F,A,F]2 [F,A,F]>[F,A,F] [F,A,F]2 FE |[M:7/8][K:bass] B,,2 [B,,G,]2 [B,,B,]3 |[M:1/8] [B,,B,] | %5
[M:4/4] [E,B,E]2 [E,G,E]2 [E,G,E]2 [E,B,]2 | [B,,B,]2 [B,,F,]2 [B,,B,]2 [B,,B,]2 | %7
 [F,A,E]2 [F,A,E]2 [F,A,E]>[F,B,D] [F,B,F]>[F,E] | [B,,F,B,]6 z2 | [B,,B,]2 [B,,B,]2 [B,,B,]2 z F | %10
 [E,E]>[E,E] [E,E]>[E,B,] [B,,B,]2 [D,B,]2 | %11
 [F,A,F]2 [F,A,F]2 [F,A,F]>[E,A,] [D,B,]>[K:treble][F,A,F] | %12
 [B,F]2[K:bass] [B,,B,]>[B,,B,] [B,,B,]2 z2 | [B,,B,]2 [B,,B,]>[B,,B,] [B,,B,]2 z F | %14
 [E,E]>[E,E] [E,E]>[E,B,] [B,,B,]2 [D,B,]2 | [F,A,E]2 [F,A,E]2 [F,A,E]>[F,B,D] [F,B,F]>[F,E] | %16
 [B,,F,]6 z2 |] %17
V:3
 x8 | x8 | z4 z2 [F,A,]2 |[M:7/8][K:bass] x7 |[M:1/8] x |[M:4/4] x8 | x8 | x8 | x8 | z4 z2 D,2 | %10
 x8 | x15/2[K:treble] x/ | x2[K:bass] x6 | z4 z2 D,2 | x8 | x8 | x8 |] %17
V:4
 x8 | x8 | x8 |[M:7/8] x7 |[M:1/8] x |[M:4/4] x8 | x8 | x8 | x8 | F2 F2 z2 z c | x8 | x8 | %12
 z2 F>F F2 z2 | z4 [Fd]4 | x8 | x8 | x8 |] %17
V:5
 x8 | x8 | x8 |[M:7/8] x7 |[M:1/8] x |[M:4/4] x8 | x8 | x8 | x8 | z4 z2 B,2 | x8 | x8 | x8 | %13
 z4 z2 B,2 | x8 | x8 | x8 |] %17

